X: 25913
T: Maudabawn Chapel
R: reel
M: 4/4
K: Gmajor
|:G3 D E2 DB,|G,A,B,D EGDB,|G,A,B,D GABd|gabg eaaf|
[1gbag efge|dged B^cde|g2 fa gedB|AcBA GEED:|
[2 ~g3a b/a/g a/g/f|gfed eage|dged BedB|AGBA GEED||

